X: 492
T: Sea Flower
%R: march
Z: 2018 John Chambers <jc:trillian.mit.edu>
B: John Treat - "Gamut for the Fifes", 1779, p.49 #2
F: https://archive.org/details/GamutFortheFifes
N: The last half-measure is missing.
M: 2/4
L: 1/8
K: Amix
% - - - - - - - - - - - - - - - - - - - - - - - - -
|:\
cd ed | cA cA | BG EG | BG EG |\
cd ed | cA cA | BG EG | A2 A2 :|
|:\
ce ag | fe dc | de fd | ee cA |\
ce ag | fe dc | Bb bg | a2 z2 :|
% - - - - - - - - - - - - - - - - - - - - - - - - -
